dist/img/svg/ok.svg

<svg width="10" height="16" viewBox="0 0 10 16" fill="none" xmlns="http://www.w3.org/2000/svg">
<path fill-rule="evenodd" clip-rule="evenodd" d="M4.32573 0.0240581C3.40667 0.14459 2.78894 0.340455 2.08835 0.882849C1.77949 1.12391 1.56856 1.34238 1.32749 1.65877C1.10903 1.93751 0.905629 2.31417 0.770031 2.65316C0.227636 4.06942 0.521433 5.4932 1.38022 6.67592C1.75689 7.18819 2.56295 7.78331 3.15807 7.98671C3.7532 8.19011 4.23533 8.28804 4.92839 8.25037C7.83622 8.06958 9.65927 4.90561 8.28822 2.2313C8.16015 1.9827 8.03209 1.80944 7.88142 1.60604C7.12057 0.566453 5.57625 -0.141674 4.32573 0.0240581ZM4.34079 2.4573C3.37654 2.65316 2.79648 3.49689 2.93961 4.40841C3.07521 5.24461 3.8888 6.00546 4.92085 5.82467C6.41997 5.561 6.8117 3.65509 5.68171 2.7963C5.36532 2.55523 4.85306 2.35183 4.34079 2.4573Z" fill="white"/>
<path fill-rule="evenodd" clip-rule="evenodd" d="M2.51802 15.4749C2.69882 15.2941 4.52187 13.4635 4.62733 13.3957C4.74033 13.4635 4.89853 13.6443 5.004 13.7498L6.81951 15.5728C7.06811 15.8289 7.36191 16.0097 7.89677 15.9871C8.30356 15.8817 8.60489 15.7235 8.79322 15.3694C8.85349 15.264 8.90622 15.1359 8.92882 15.0003C9.05689 14.2997 8.59736 13.9306 8.31863 13.6443C8.1755 13.5012 6.38258 11.7459 6.31478 11.6329C7.11331 11.4371 7.77623 11.1583 8.41656 10.7967C8.76309 10.6084 9.01922 10.4502 9.15482 10.0585C9.46368 9.20721 8.80829 8.40115 7.9947 8.42375C7.5201 8.43882 7.30917 8.67988 6.96264 8.84562C5.38066 9.57634 3.77608 9.58387 2.21669 8.80042C1.89276 8.63468 1.6065 8.37855 1.13944 8.40869C0.242978 8.45389 -0.216551 9.38801 0.0998462 10.1112C0.265578 10.4803 0.514175 10.6159 0.860705 10.8118C1.47843 11.1734 2.17902 11.4446 2.94742 11.6329C2.87962 11.7384 1.05657 13.5313 0.913438 13.6744C0.619641 13.9607 0.175179 14.3223 0.318311 15.0455C0.536775 16.1755 1.7195 16.2809 2.51802 15.4749Z" fill="white"/>
</svg>

<svg width="10" height="16" viewBox="0 0 10 16" fill="none" xmlns="http://www.w3.org/2000/svg"><path fill-rule="evenodd" clip-rule="evenodd" d="M4.326.024c-.92.12-1.537.316-2.238.859a3.91 3.91 0 00-.76.776 4.277 4.277 0 00-.558.994c-.542 1.416-.249 2.84.61 4.023.377.512 1.183 1.107 1.778 1.31.595.204 1.077.302 1.77.264 2.908-.18 4.731-3.344 3.36-6.019a4.26 4.26 0 00-.407-.625C7.121.566 5.576-.142 4.326.024zm.015 2.433c-.964.196-1.545 1.04-1.401 1.951.135.837.949 1.597 1.98 1.417 1.5-.264 1.892-2.17.762-3.029-.317-.24-.829-.444-1.341-.339zM2.518 15.475c.18-.18 2.004-2.011 2.11-2.08.112.069.27.25.376.355l1.816 1.823c.248.256.542.437 1.077.414.407-.105.708-.264.896-.618.06-.105.113-.233.136-.369.128-.7-.332-1.07-.61-1.356-.144-.143-1.936-1.898-2.004-2.011a8.058 8.058 0 002.102-.836c.346-.189.602-.347.738-.739a1.209 1.209 0 00-1.16-1.634c-.475.015-.686.256-1.032.422-1.582.73-3.187.738-4.746-.046-.324-.165-.61-.421-1.078-.391-.896.045-1.356.979-1.04 1.702.167.37.415.505.762.7a7.78 7.78 0 002.086.822c-.067.105-1.89 1.898-2.034 2.041-.293.287-.738.648-.595 1.372.219 1.13 1.401 1.235 2.2.429z" fill="#fff"/></svg>
